X:692
T:Mrs. Drummond of Logiealmond
R:Reel
C:Niel Gow
B:The Athole Collection
M:C|
L:1/8
K:E Minor
B|efge df B2|d2 Bd AdFD|efge dfBe|dBdF E/E/E E:|
B|GBEB GBe^c|dfBd AdFD|GBEB GEBd|^cAdF E/E/E EB|
GBEB GBe^c|dfBd AdFD|GBEB GEEa|gef^d e/e/e e||

